src/assets/outline/Hex.svg

<svg width="24" height="24" viewBox="0 0 24 24"  xmlns="http://www.w3.org/2000/svg">
<path d="M17.4299 21.4099H6.55988L1.12988 11.9998L6.55988 2.58984H17.4299L22.8599 11.9998L17.4299 21.4099ZM7.42987 19.9099H16.5599L21.1299 11.9998L16.5599 4.08984H7.42987L2.86987 11.9998L7.42987 19.9099Z" />
<path d="M11.3102 21.41H6.60025L4.24023 17.33L6.60025 13.25H11.3102L13.6703 17.33L11.3102 21.41ZM7.46024 19.91H10.4402L11.9302 17.33L10.4402 14.75H7.46024L5.97025 17.33L7.46024 19.91Z" />
<path d="M14.7798 21.41H6.59976L2.50977 14.33L6.59976 7.25H14.7798L18.8698 14.33L14.7798 21.41ZM7.46976 19.91H13.9098L17.1298 14.33L13.9098 8.75H7.46976L4.24976 14.33L7.46976 19.91Z" />
</svg>

<?xml version="1.0" encoding="UTF-8"?>
<svg width="24" height="24" viewBox="0 0 24 24" xmlns="http://www.w3.org/2000/svg">
 <path d="m17.43 21.41h-10.87l-5.43-9.4101 5.43-9.41h10.87l5.43 9.41-5.43 9.4101zm-10-1.5h9.13l4.57-7.9101-4.57-7.91h-9.13l-4.56 7.91 4.56 7.9101z"/>
 <path d="m11.31 21.41h-4.71l-2.36-4.08 2.36-4.08h4.71l2.3601 4.08-2.3601 4.08zm-3.85-1.5h2.98l1.49-2.58-1.49-2.58h-2.98l-1.49 2.58 1.49 2.58z"/>
 <path d="m14.78 21.41h-8.18l-4.09-7.08 4.09-7.08h8.18l4.09 7.08-4.09 7.08zm-7.31-1.5h6.44l3.22-5.58-3.22-5.58h-6.44l-3.22 5.58 3.22 5.58z"/>
</svg>
